X:1026
T:Golden Legs, The
R:reel
C:Liz Carroll
Z:id:hn-reel-1026
M:C|
L:1/8
K:D
D2FD E2GE | FDEF GABd | fedf ecA2 | dBGB AECE |
D2FD E2GE | FDEF GABd | efge cAGE |1 EDCE DGFE :|2 EDCE Da^ga ||
|: fd~d2 cdef | g2fa gefd | cA~A2 BG~G2 | AF~F2 GE~E2 | 
[1 fd~d2 cdef | g2fa gefd | cAA^G Ae=ge | cAGE Da^ga :|
[2 D2FD E2GE | FDEF GABd | efge cAGE | EDCE DGFE ||

